Numix-GalliumOS/16/devices/media-flash-cf.svg

<?xml version="1.0" encoding="UTF-8" standalone="no"?>
<svg
   xmlns:dc="http://purl.org/dc/elements/1.1/"
   xmlns:cc="http://creativecommons.org/ns#"
   xmlns:rdf="http://www.w3.org/1999/02/22-rdf-syntax-ns#"
   xmlns:svg="http://www.w3.org/2000/svg"
   xmlns="http://www.w3.org/2000/svg"
   xmlns:sodipodi="http://sodipodi.sourceforge.net/DTD/sodipodi-0.dtd"
   xmlns:inkscape="http://www.inkscape.org/namespaces/inkscape"
   width="16"
   height="16"
   viewBox="0 0 16 16"
   id="svg1038"
   version="1.1"
   inkscape:version="0.91 r"
   sodipodi:docname="media-flash-cf.svg">
  <metadata
     id="metadata1109">
    <rdf:RDF>
      <cc:Work
         rdf:about="">
        <dc:format>image/svg+xml</dc:format>
        <dc:type
           rdf:resource="http://purl.org/dc/dcmitype/StillImage" />
      </cc:Work>
    </rdf:RDF>
  </metadata>
  <sodipodi:namedview
     pagecolor="#ffffff"
     bordercolor="#666666"
     borderopacity="1"
     objecttolerance="10"
     gridtolerance="10"
     guidetolerance="10"
     inkscape:pageopacity="0"
     inkscape:pageshadow="2"
     inkscape:window-width="640"
     inkscape:window-height="480"
     id="namedview1107" />
  <defs
     id="defs1040">
    <linearGradient
       gradientTransform="scale(.33333)"
       id="linear1"
       y1="11"
       y2="42"
       gradientUnits="userSpaceOnUse"
       x2="0">
      <stop
         offset="0"
         style="stop-color:#e5e5e5"
         id="stop1043" />
      <stop
         offset="1"
         style="stop-color:#aaa"
         id="stop1045" />
    </linearGradient>
    <linearGradient
       gradientTransform="matrix(.33333 0 0 .33333 0 .66667)"
       id="linear2"
       y1="3.656"
       y2="21"
       gradientUnits="userSpaceOnUse"
       x2="0">
      <stop
         offset="0"
         style="stop-color:#ecd562"
         id="stop1048" />
      <stop
         offset="1"
         style="stop-color:#df8122"
         id="stop1050" />
    </linearGradient>
    <linearGradient
       gradientTransform="matrix(.02186 0 0 .01098 .09846 9.13587)"
       id="linear0"
       y1="366.648"
       y2="609.505"
       gradientUnits="userSpaceOnUse"
       x2="0">
      <stop
         offset="0"
         style="stop-color:#000;stop-opacity:0"
         id="stop1053" />
      <stop
         offset=".5"
         style="stop-color:#000;stop-opacity:.404"
         id="stop1055" />
      <stop
         offset="1"
         style="stop-color:#000;stop-opacity:0"
         id="stop1057" />
    </linearGradient>
    <radialGradient
       cx="605.714"
       cy="486.648"
       gradientTransform="matrix(.02186 0 0 .01098 .10276 9.13587)"
       id="radial0"
       r="117.143"
       gradientUnits="userSpaceOnUse">
      <stop
         offset="0"
         style="stop-color:#000;stop-opacity:.404"
         id="stop1060" />
      <stop
         offset="1"
         style="stop-color:#000;stop-opacity:0"
         id="stop1062" />
    </radialGradient>
    <radialGradient
       cx="5"
       cy="7.1"
       gradientTransform="matrix(2.28528 .06529 -.04762 1.66667 -6.08829 -.1598)"
       id="radial3"
       r="21"
       gradientUnits="userSpaceOnUse">
      <stop
         offset="0"
         style="stop-color:#fff;stop-opacity:.4"
         id="stop1065" />
      <stop
         offset="1"
         style="stop-color:#fff;stop-opacity:0"
         id="stop1067" />
    </radialGradient>
    <radialGradient
       cx="605.714"
       cy="486.648"
       gradientTransform="matrix(-.02186 0 0 .01098 15.8974 9.13587)"
       id="radial1"
       r="117.143"
       gradientUnits="userSpaceOnUse">
      <stop
         offset="0"
         style="stop-color:#000;stop-opacity:.404"
         id="stop1070" />
      <stop
         offset="1"
         style="stop-color:#000;stop-opacity:0"
         id="stop1072" />
    </radialGradient>
    <radialGradient
       cx="9"
       cy="19.149"
       gradientTransform="matrix(1.90909 0 0 1.40909 -8.18182 -4.98219)"
       id="radial2"
       r="22"
       gradientUnits="userSpaceOnUse">
      <stop
         offset="0"
         style="stop-color:#787878"
         id="stop1075" />
      <stop
         offset="1"
         style="stop-color:#3c3c3c"
         id="stop1077" />
    </radialGradient>
  </defs>
  <path
     style="fill:url(#linear0)"
     d="M 2.722656 13.160156 L 13.277344 13.160156 L 13.277344 15.828125 L 2.722656 15.828125 Z "
     id="path1079" />
  <path
     style="fill:url(#radial0)"
     d="M 13.277344 13.160156 C 13.277344 13.160156 13.277344 15.828125 13.277344 15.828125 C 14.402344 15.832031 16 15.230469 16 14.492188 C 16 13.757812 14.742188 13.160156 13.277344 13.160156 Z "
     id="path1081" />
  <path
     style="fill:url(#radial1)"
     d="M 2.722656 13.160156 C 2.722656 13.160156 2.722656 15.828125 2.722656 15.828125 C 1.597656 15.832031 0 15.230469 0 14.492188 C 0 13.757812 1.257812 13.160156 2.722656 13.160156 Z "
     id="path1083" />
  <g
     style="stroke-linecap:round"
     id="g1085">
    <path
       style="fill:url(#radial2);stroke:#282828;stroke-linejoin:round"
       d="M 3.316406 8.496094 L 44.683594 8.496094 C 45.128906 8.496094 45.503906 8.871094 45.503906 9.316406 L 45.503906 43.6875 C 45.503906 44.132812 45.128906 44.496094 44.683594 44.496094 L 3.316406 44.496094 C 2.871094 44.496094 2.496094 44.132812 2.496094 43.6875 L 2.496094 9.316406 C 2.496094 8.871094 2.871094 8.496094 3.316406 8.496094 Z "
       transform="scale(.33333)"
       id="path1087" />
    <path
       style="fill:none;stroke:url(#radial3)"
       d="M 3.503906 9.503906 L 44.496094 9.503906 L 44.496094 43.5 L 3.503906 43.5 Z "
       transform="scale(.33333)"
       id="path1089" />
  </g>
  <path
     style="fill:url(#linear1)"
     d="M 2 3.667969 C 1.816406 3.667969 1.667969 3.816406 1.667969 4 L 1.667969 7.667969 L 2 7.667969 L 2 13.667969 C 2 13.824219 2.175781 14 2.332031 14 L 13.667969 14 C 13.824219 14 14 13.824219 14 13.667969 L 14 7.667969 L 14.332031 7.667969 L 14.332031 4 C 14.332031 3.816406 14.183594 3.667969 14 3.667969 Z "
     id="path1091" />
  <path
     style="fill:#fff"
     d="M 2.332031 7.332031 L 2.332031 13 C 2.332031 13.15625 2.507812 13.332031 2.667969 13.332031 L 13.332031 13.332031 C 13.492188 13.332031 13.667969 13.15625 13.667969 13 L 13.667969 7.332031 "
     id="path1093" />
  <path
     style="fill:url(#linear2)"
     d="M 2.332031 7.667969 L 2.332031 4.304688 C 2.332031 4.160156 2.507812 4 2.667969 4 L 13.332031 4 C 13.492188 4 13.667969 4.160156 13.667969 4.304688 L 13.667969 7.667969 "
     id="path1095" />
  <path
     style="fill:#fff;stroke:#ba5d12;stroke-linejoin:round;stroke-width:.784"
     d="M 58.075843 30.99986 L 63.999826 23.999891 L 69.92381 30.99986 Z "
     transform="matrix(.21101 0 0 .21429 -5.50439 -.39286)"
     id="path1097" />
  <g
     style="fill:#282828"
     id="g1099">
    <path
       d="M 7.992188 11.566406 L 8.628906 11.777344 C 8.585938 11.976562 8.519531 12.136719 8.425781 12.269531 C 8.335938 12.402344 8.21875 12.5 8.082031 12.566406 C 7.945312 12.632812 7.773438 12.667969 7.5625 12.667969 C 7.304688 12.667969 7.09375 12.625 6.929688 12.546875 C 6.769531 12.464844 6.628906 12.320312 6.511719 12.113281 C 6.390625 11.910156 6.332031 11.648438 6.332031 11.328125 C 6.332031 10.902344 6.4375 10.574219 6.644531 10.34375 C 6.851562 10.113281 7.148438 10 7.527344 10 C 7.824219 10 8.058594 10.066406 8.226562 10.195312 C 8.398438 10.328125 8.523438 10.53125 8.609375 10.800781 L 7.964844 10.957031 C 7.941406 10.878906 7.917969 10.820312 7.890625 10.785156 C 7.851562 10.726562 7.800781 10.679688 7.742188 10.644531 C 7.683594 10.613281 7.617188 10.597656 7.542969 10.597656 C 7.378906 10.597656 7.253906 10.667969 7.164062 10.8125 C 7.097656 10.921875 7.066406 11.089844 7.066406 11.320312 C 7.066406 11.609375 7.105469 11.804688 7.183594 11.910156 C 7.261719 12.015625 7.375 12.070312 7.519531 12.070312 C 7.660156 12.070312 7.761719 12.027344 7.835938 11.941406 C 7.90625 11.855469 7.957031 11.730469 7.992188 11.566406 "
       id="path1101" />
    <path
       d="M 8.984375 10.042969 L 10.789062 10.042969 L 10.789062 10.597656 L 9.71875 10.597656 L 9.71875 11.046875 L 10.632812 11.046875 L 10.632812 11.566406 L 9.71875 11.566406 L 9.71875 12.621094 L 8.984375 12.621094 L 8.984375 10.042969 "
       id="path1103" />
    <path
       d="M 13 12.621094 L 11.03125 12.621094 C 11.054688 12.410156 11.121094 12.210938 11.234375 12.023438 C 11.351562 11.835938 11.566406 11.613281 11.878906 11.359375 C 12.074219 11.203125 12.195312 11.085938 12.25 11.003906 C 12.304688 10.925781 12.328125 10.847656 12.328125 10.773438 C 12.328125 10.695312 12.304688 10.628906 12.25 10.574219 C 12.195312 10.519531 12.128906 10.492188 12.050781 10.492188 C 11.964844 10.492188 11.898438 10.519531 11.84375 10.578125 C 11.789062 10.632812 11.753906 10.734375 11.738281 10.878906 L 11.082031 10.824219 C 11.105469 10.621094 11.152344 10.464844 11.222656 10.351562 C 11.289062 10.238281 11.386719 10.152344 11.511719 10.089844 C 11.636719 10.03125 11.8125 10 12.03125 10 C 12.261719 10 12.441406 10.027344 12.570312 10.085938 C 12.699219 10.144531 12.800781 10.230469 12.871094 10.351562 C 12.945312 10.46875 12.984375 10.601562 12.984375 10.75 C 12.984375 10.90625 12.941406 11.058594 12.855469 11.199219 C 12.773438 11.34375 12.621094 11.5 12.398438 11.671875 C 12.265625 11.769531 12.175781 11.839844 12.132812 11.882812 C 12.085938 11.921875 12.035156 11.972656 11.976562 12.039062 L 13 12.039062 L 13 12.621094 "
       id="path1105" />
  </g>
</svg>

<svg xmlns="http://www.w3.org/2000/svg" viewBox="0 0 16 16" xmlns:xlink="http://www.w3.org/1999/xlink">
 <defs>
  <linearGradient gradientTransform="scale(.33333)" id="linear1" y1="11" y2="42" gradientUnits="userSpaceOnUse" x2="0">
   <stop style="stop-color:#e5e5e5"/>
   <stop offset="1" style="stop-color:#aaa"/>
  </linearGradient>
  <linearGradient gradientTransform="matrix(.33333 0 0 .33333 0 .66667)" id="linear2" y1="3.656" y2="21" gradientUnits="userSpaceOnUse" x2="0">
   <stop style="stop-color:#ecd562"/>
   <stop offset="1" style="stop-color:#df8122"/>
  </linearGradient>
  <linearGradient gradientTransform="matrix(.02186 0 0 .01098 .09846 9.13587)" id="linear0" y1="366.65" y2="609.5" gradientUnits="userSpaceOnUse" x2="0">
   <stop style="stop-color:#000;stop-opacity:0"/>
   <stop offset="0.5" style="stop-color:#000;stop-opacity:0.404"/>
   <stop offset="1" style="stop-color:#000;stop-opacity:0"/>
  </linearGradient>
  <radialGradient cx="605.71" cy="486.65" gradientTransform="matrix(.02186 0 0 .01098 .10276 9.13587)" id="radial0" r="117.14" gradientUnits="userSpaceOnUse">
   <stop style="stop-color:#000;stop-opacity:0.404"/>
   <stop offset="1" style="stop-color:#000;stop-opacity:0"/>
  </radialGradient>
  <radialGradient cx="5" cy="7.1" gradientTransform="matrix(2.28528 .06529 -.04762 1.66667 -6.08829 -.1598)" id="radial3" r="21" gradientUnits="userSpaceOnUse">
   <stop style="stop-color:#fff;stop-opacity:0.4"/>
   <stop offset="1" style="stop-color:#fff;stop-opacity:0"/>
  </radialGradient>
  <radialGradient cx="605.71" cy="486.65" gradientTransform="matrix(-.02186 0 0 .01098 15.8974 9.13587)" id="radial1" r="117.14" gradientUnits="userSpaceOnUse" xlink:href="#radial0"/>
  <radialGradient cx="9" cy="19.15" gradientTransform="matrix(1.90909 0 0 1.40909 -8.18182 -4.98219)" id="radial2" r="22" gradientUnits="userSpaceOnUse">
   <stop style="stop-color:#787878"/>
   <stop offset="1" style="stop-color:#3c3c3c"/>
  </radialGradient>
 </defs>
 <path d="m 2.723 13.16 l 10.555 0 l 0 2.668 l -10.555 0 Z" style="fill:url(#linear0)"/>
 <path d="m 13.277 13.16 c 0 0 0 2.668 0 2.668 c 1.125 0.004 2.723 -0.598 2.723 -1.336 c 0 -0.734 -1.258 -1.332 -2.723 -1.332 Z" style="fill:url(#radial0)"/>
 <path d="m 2.723 13.16 c 0 0 0 2.668 0 2.668 c -1.125 0.004 -2.723 -0.598 -2.723 -1.336 c 0 -0.734 1.258 -1.332 2.723 -1.332 Z" style="fill:url(#radial1)"/>
 <g style="stroke-linecap:round">
  <path d="m 3.316 8.496 l 41.37 0 c 0.445 0 0.82 0.375 0.82 0.82 l 0 34.37 c 0 0.445 -0.375 0.809 -0.82 0.809 l -41.37 0 c -0.445 0 -0.82 -0.363 -0.82 -0.809 l 0 -34.37 c 0 -0.445 0.375 -0.82 0.82 -0.82 Z" transform="scale(.33333)" style="fill:url(#radial2);stroke:#282828;stroke-linejoin:round"/>
  <path d="m 3.504 9.504 l 40.992 0 l 0 33.996 l -40.992 0 Z" transform="scale(.33333)" style="fill:none;stroke:url(#radial3)"/>
 </g>
 <path d="m 2 3.668 c -0.184 0 -0.332 0.148 -0.332 0.332 l 0 3.668 l 0.332 0 l 0 6 c 0 0.156 0.176 0.332 0.332 0.332 l 11.336 0 c 0.156 0 0.332 -0.176 0.332 -0.332 l 0 -6 l 0.332 0 l 0 -3.668 c 0 -0.184 -0.148 -0.332 -0.332 -0.332 Z" style="fill:url(#linear1)"/>
 <path d="m 2.332 7.332 l 0 5.668 c 0 0.156 0.176 0.332 0.336 0.332 l 10.664 0 c 0.16 0 0.336 -0.176 0.336 -0.332 l 0 -5.668" style="fill:#fff"/>
 <path d="m 2.332 7.668 l 0 -3.363 c 0 -0.145 0.176 -0.305 0.336 -0.305 l 10.664 0 c 0.16 0 0.336 0.16 0.336 0.305 l 0 3.363" style="fill:url(#linear2)"/>
 <path d="m 58.08 31 l 5.924 -7 l 5.924 7 Z" transform="matrix(.21101 0 0 .21429 -5.50439 -.39286)" style="fill:#fff;stroke:#ba5d12;stroke-linejoin:round;stroke-width:0.784"/>
 <g style="fill:#282828">
  <path d="m 7.992 11.566 l 0.637 0.211 c -0.043 0.199 -0.109 0.359 -0.203 0.492 c -0.09 0.133 -0.207 0.23 -0.344 0.297 c -0.137 0.066 -0.309 0.102 -0.52 0.102 c -0.258 0 -0.469 -0.043 -0.633 -0.121 c -0.16 -0.082 -0.301 -0.227 -0.418 -0.434 c -0.121 -0.203 -0.18 -0.465 -0.18 -0.785 c 0 -0.426 0.105 -0.754 0.313 -0.984 c 0.207 -0.23 0.504 -0.344 0.883 -0.344 c 0.297 0 0.531 0.066 0.699 0.195 c 0.172 0.133 0.297 0.336 0.383 0.605 l -0.645 0.156 c -0.023 -0.078 -0.047 -0.137 -0.074 -0.172 c -0.039 -0.059 -0.09 -0.105 -0.148 -0.141 c -0.059 -0.031 -0.125 -0.047 -0.199 -0.047 c -0.164 0 -0.289 0.07 -0.379 0.215 c -0.066 0.109 -0.098 0.277 -0.098 0.508 c 0 0.289 0.039 0.484 0.117 0.59 c 0.078 0.105 0.191 0.16 0.336 0.16 c 0.141 0 0.242 -0.043 0.316 -0.129 c 0.07 -0.086 0.121 -0.211 0.156 -0.375"/>
  <path d="m 8.984 10.04 l 1.805 0 l 0 0.555 l -1.07 0 l 0 0.449 l 0.914 0 l 0 0.52 l -0.914 0 l 0 1.055 l -0.734 0 l 0 -2.578"/>
  <path d="m 13 12.621 l -1.969 0 c 0.023 -0.211 0.09 -0.41 0.203 -0.598 c 0.117 -0.188 0.332 -0.41 0.645 -0.664 c 0.195 -0.156 0.316 -0.273 0.371 -0.355 c 0.055 -0.078 0.078 -0.156 0.078 -0.23 c 0 -0.078 -0.023 -0.145 -0.078 -0.199 c -0.055 -0.055 -0.121 -0.082 -0.199 -0.082 c -0.086 0 -0.152 0.027 -0.207 0.086 c -0.055 0.055 -0.09 0.156 -0.105 0.301 l -0.656 -0.055 c 0.023 -0.203 0.07 -0.359 0.141 -0.473 c 0.066 -0.113 0.164 -0.199 0.289 -0.262 c 0.125 -0.059 0.301 -0.09 0.52 -0.09 c 0.23 0 0.41 0.027 0.539 0.086 c 0.129 0.059 0.23 0.145 0.301 0.266 c 0.074 0.117 0.113 0.25 0.113 0.398 c 0 0.156 -0.043 0.309 -0.129 0.449 c -0.082 0.145 -0.234 0.301 -0.457 0.473 c -0.133 0.098 -0.223 0.168 -0.266 0.211 c -0.047 0.039 -0.098 0.09 -0.156 0.156 l 1.023 0 l 0 0.582"/>
 </g>
</svg>
